X: 45
T: No_50_War_Song_(c).krn
N: Derived from No_50_War_Song_(c).krn
%%abc-version 2.0
%%abcx-abcm2ps-target-version 5.9.1 (29 Sep 2008)
%%abc-creator hum2abc beta
%%abcx-conversion-date 2019/03/15 08:25:35
%%humdrum-veritas 3965284738
%%humdrum-veritas-data 2600502562
%%linebreak <none>
%%barnumbers 0
L: 1/16
M: 3/4
K: E clef=bass
[K:clef=bass][M:3/4]E,3E,E,4E,2 z E ]|:  
[M:2/4]E4B,2 z E | 
E4B,2 z G, | 
B,4A,2 z F, | 
B,4A,2 z F, | 
E,3E, F,3F, | 
[M:3/4]G,3F,E,4E,4 | 
[M:2/4]E,4E,2 z E :|]  
[M:2/4]E,4E,2 z B, ]|:  
B,B,3 F,2 z B, | 
[M:3/4]B,4B,4B,4 | 
B,A,3 F,3F, E,2 z2 | 
[M:2/4]F,3F, G,3F, | 
E,4E,4 | 
E,4E,2 z B, :|]  
E,4E,2 z E | 
E4B,2 z E | 
E4B,2 z G, | 
B,4A,2 z F, | 
B,4A,2 z F, | 
E,3E, F,3G, | 
[M:3/4]G,3F,E,4E,4 | 
E,4E,4z4 |]  



